main-pages/gulp-scss-starter/dist/img/default/offer-filter/details4.svg

<svg width="26" height="27" viewBox="0 0 26 27" fill="none" xmlns="http://www.w3.org/2000/svg">
<path d="M17.7995 13.6304L12.9995 8.83037M12.9995 8.83037L8.19951 13.6304M12.9995 8.83037V18.4304M24.9995 13.6304C24.9995 20.2578 19.6269 25.6304 12.9995 25.6304C6.37209 25.6304 0.999512 20.2578 0.999512 13.6304C0.999512 7.00295 6.37209 1.63037 12.9995 1.63037C19.6269 1.63037 24.9995 7.00295 24.9995 13.6304Z" stroke="#616161" stroke-width="2" stroke-linecap="round" stroke-linejoin="round"/>
</svg>

<svg width="26" height="27" viewBox="0 0 26 27" fill="none" xmlns="http://www.w3.org/2000/svg"><path d="M17.8 13.63L13 8.83m0 0l-4.8 4.8m4.8-4.8v9.6m12-4.8c0 6.628-5.373 12-12 12-6.628 0-12-5.372-12-12 0-6.627 5.372-12 12-12 6.627 0 12 5.373 12 12z" stroke="#616161" stroke-width="2" stroke-linecap="round" stroke-linejoin="round"/></svg>
